24x24/apps/alacarte.svg

<svg xmlns="http://www.w3.org/2000/svg" width="24" height="24" version="1.1">
 <path style="opacity:0.2" d="M 3.9230769,1.50035 H 20.076923 C 20.588308,1.50035 21,1.9127 21,2.42675 V 18.6287 C 21,19.1428 20.588308,19.5 20.076923,19.5 H 9.5 l -2,2.5 -2,-2.5 H 3.9230769 C 3.4116923,19.5 3,19.1428 3,18.6287 V 2.42675 C 3,1.9127 3.4116923,1.50035 3.9230769,1.50035 Z"/>
 <path style="fill:#f4f4f7" d="M 3.9230769,1 H 20.076923 C 20.588308,1 21,1.41235 21,1.9264 v 16.20195 c 0,0.5141 -0.411692,0.8713 -0.923077,0.8713 H 9.5 l -2,2.5 -2,-2.5 H 3.9230769 C 3.4116923,18.99965 3,18.64245 3,18.12835 V 1.9264 C 3,1.41235 3.4116923,1 3.9230769,1 Z"/>
 <path style="opacity:0.1" d="M 5.3652344,4.4999 C 5.1671354,4.4999 5,4.6689875 5,4.8670875 V 6.1346656 C 5,6.3327656 5.1671354,6.4999 5.3652344,6.4999 H 6.6347656 C 6.8328646,6.4999 7,6.3327656 7,6.1346656 V 4.8670875 C 7,4.6689875 6.8328646,4.4999 6.6347656,4.4999 Z M 10,4.4999 a 1.0001,1.0001 0 1 0 0,2 h 8 a 1.0001,1.0001 0 1 0 0,-2 z m -4.6347656,10 C 5.1671354,14.4999 5,14.668986 5,14.867088 v 1.267578 c 0,0.1981 0.1671354,0.365234 0.3652344,0.365234 H 6.6347656 C 6.8328646,16.4999 7,16.332766 7,16.134666 V 14.867088 C 7,14.668986 6.8328646,14.4999 6.6347656,14.4999 Z M 10,14.4999 a 1.0001,1.0001 0 1 0 0,2 h 8 a 1.0001,1.0001 0 1 0 0,-2 z"/>
 <rect style="fill:#00c7c5" width="18" height="4" x="3" y="8"/>
 <path style="opacity:0.2" d="M 5.3652344,9.4999 C 5.1671354,9.4999 5,9.6689875 5,9.8670875 v 1.2675785 c 0,0.1981 0.1671354,0.365234 0.3652344,0.365234 H 6.6347656 C 6.8328646,11.4999 7,11.332766 7,11.134666 V 9.8670875 C 7,9.6689875 6.8328646,9.4999 6.6347656,9.4999 Z M 10,9.4999 a 1.0001,1.0001 0 1 0 0,2 h 8 a 1.0001,1.0001 0 1 0 0,-2 z"/>
 <path style="fill:#f4f4f7" d="M 5.3652345,9 C 5.1671355,9 5,9.168111 5,9.366211 v 1.268555 C 5,10.832866 5.1671355,11 5.3652345,11 h 1.269531 C 6.8328645,11 7,10.832866 7,10.634766 V 9.366211 C 7,9.168111 6.8328645,9 6.6347655,9 Z"/>
 <path style="opacity:0.2;fill:#f4f4f7" d="M 3.9228515,1 C 3.411467,1 3,1.4127078 3,1.9267578 v 0.5 C 3,1.9127078 3.411467,1.5 3.9228515,1.5 H 20.077148 C 20.588533,1.5 21,1.9127078 21,2.4267578 v -0.5 C 21,1.4127078 20.588533,1 20.077148,1 Z"/>
 <path style="fill:#f4f4f7;stroke:#f4f4f7;stroke-width:2;stroke-linecap:round" d="m 10,10 h 8"/>
 <path style="fill:none;stroke:#898989;stroke-width:2;stroke-linecap:round" d="m 10,5 h 8"/>
 <path style="fill:none;stroke:#898989;stroke-width:2;stroke-linecap:round" d="m 10,15 h 8"/>
 <path style="fill:#898989" d="M 5.3652345,4 C 5.1671355,4 5,4.168111 5,4.366211 V 5.6347655 C 5,5.8328655 5.1671355,6 5.3652345,6 h 1.269531 C 6.8328645,6 7,5.8328655 7,5.6347655 V 4.366211 C 7,4.168111 6.8328645,4 6.6347655,4 Z"/>
 <path style="fill:#898989" d="M 5.3652345,14 C 5.1671355,14 5,14.168111 5,14.366211 v 1.268555 C 5,15.832866 5.1671355,16 5.3652345,16 h 1.269531 C 6.8328645,16 7,15.832866 7,15.634766 V 14.366211 C 7,14.168111 6.8328645,14 6.6347655,14 Z"/>
</svg>

<svg xmlns="http://www.w3.org/2000/svg" width="24" height="24"><path style="opacity:.2" d="M3.923 1.5h16.154c.511 0 .923.413.923.927v16.202c0 .514-.412.871-.923.871H9.5l-2 2.5-2-2.5H3.923c-.511 0-.923-.357-.923-.871V2.427c0-.514.412-.927.923-.927z"/><path style="fill:#f4f4f7" d="M3.923 1h16.154c.511 0 .923.412.923.926v16.202c0 .514-.412.872-.923.872H9.5l-2 2.5-2-2.5H3.923C3.412 19 3 18.642 3 18.128V1.926C3 1.412 3.412 1 3.923 1z"/><path style="opacity:.1" d="M5.365 4.5A.372.372 0 0 0 5 4.867v1.268a.37.37 0 0 0 .365.365h1.27A.37.37 0 0 0 7 6.135V4.867a.372.372 0 0 0-.365-.367zM10 4.5a1 1 0 1 0 0 2h8a1 1 0 1 0 0-2zm-4.635 10a.372.372 0 0 0-.365.367v1.268a.37.37 0 0 0 .365.365h1.27A.37.37 0 0 0 7 16.135v-1.268a.372.372 0 0 0-.365-.367zm4.635 0a1 1 0 1 0 0 2h8a1 1 0 1 0 0-2z"/><path style="fill:#00c7c5" d="M3 8h18v4H3z"/><path style="opacity:.2" d="M5.365 9.5A.372.372 0 0 0 5 9.867v1.268a.37.37 0 0 0 .365.365h1.27A.37.37 0 0 0 7 11.135V9.867a.372.372 0 0 0-.365-.367zM10 9.5a1 1 0 1 0 0 2h8a1 1 0 1 0 0-2z"/><path style="fill:#f4f4f7" d="M5.365 9A.37.37 0 0 0 5 9.366v1.269a.37.37 0 0 0 .365.365h1.27A.37.37 0 0 0 7 10.635V9.366A.37.37 0 0 0 6.635 9z"/><path style="opacity:.2;fill:#f4f4f7" d="M3.923 1A.922.922 0 0 0 3 1.927v.5c0-.514.411-.927.923-.927h16.154c.512 0 .923.413.923.927v-.5A.922.922 0 0 0 20.077 1z"/><path style="fill:#f4f4f7;stroke:#f4f4f7;stroke-width:2;stroke-linecap:round" d="M10 10h8"/><path style="fill:none;stroke:#898989;stroke-width:2;stroke-linecap:round" d="M10 5h8M10 15h8"/><path style="fill:#898989" d="M5.365 4A.37.37 0 0 0 5 4.366v1.269A.37.37 0 0 0 5.365 6h1.27A.37.37 0 0 0 7 5.635V4.366A.37.37 0 0 0 6.635 4zM5.365 14a.37.37 0 0 0-.365.366v1.269a.37.37 0 0 0 .365.365h1.27A.37.37 0 0 0 7 15.635v-1.269A.37.37 0 0 0 6.635 14z"/></svg>
